Newaita-dark/actions/scalable/call-stop.svg

<?xml version="1.0" encoding="UTF-8"?>
<svg xmlns="http://www.w3.org/2000/svg" xmlns:xlink="http://www.w3.org/1999/xlink" width="512pt" height="512pt" viewBox="0 0 512 512" version="1.1">
<g id="surface1">
<path style=" stroke:none;fill-rule:nonzero;fill:rgb(93.725491%,32.549021%,31.37255%);fill-opacity:0.988235;" d="M 52.921875 279.191406 L 158.765625 279.191406 C 170.457031 279.191406 179.933594 288.671875 179.933594 300.363281 L 179.933594 321.53125 C 179.933594 333.222656 170.457031 342.699219 158.765625 342.699219 L 52.921875 342.699219 C 41.230469 342.699219 31.753906 333.222656 31.753906 321.53125 L 31.753906 300.363281 C 31.753906 288.671875 41.230469 279.191406 52.921875 279.191406 Z M 52.921875 279.191406 "/>
<path style=" stroke:none;fill-rule:nonzero;fill:rgb(93.725491%,32.549021%,31.37255%);fill-opacity:1;" d="M 254.023438 173.351562 C 211.6875 173.351562 52.921875 173.351562 52.921875 268.609375 L 158.765625 268.609375 C 158.765625 236.855469 211.6875 215.6875 254.023438 215.6875 C 296.363281 215.6875 349.285156 236.855469 349.285156 268.609375 L 455.125 268.609375 C 455.125 173.351562 296.363281 173.351562 254.023438 173.351562 Z M 254.023438 173.351562 "/>
<path style=" stroke:none;fill-rule:nonzero;fill:rgb(93.725491%,32.549021%,31.37255%);fill-opacity:0.988235;" d="M 455.125 279.191406 L 349.285156 279.191406 C 337.59375 279.191406 328.113281 288.671875 328.113281 300.363281 L 328.113281 321.53125 C 328.113281 333.222656 337.59375 342.699219 349.285156 342.699219 L 455.125 342.699219 C 466.816406 342.699219 476.296875 333.222656 476.296875 321.53125 L 476.296875 300.363281 C 476.296875 288.671875 466.816406 279.191406 455.125 279.191406 Z M 455.125 279.191406 "/>
</g>
</svg>

<svg xmlns="http://www.w3.org/2000/svg" width="512pt" height="512pt" viewBox="0 0 512 512"><g fill="#ef5350"><path d="M52.922 279.191h105.844c11.691 0 21.168 9.48 21.168 21.172v21.168c0 11.692-9.477 21.168-21.168 21.168H52.922c-11.692 0-21.168-9.476-21.168-21.168v-21.168c0-11.691 9.476-21.172 21.168-21.172zm0 0" fill-opacity=".988"/><path d="M254.023 173.352c-42.335 0-201.101 0-201.101 95.257h105.844c0-31.754 52.922-52.921 95.257-52.921 42.34 0 95.262 21.167 95.262 52.921h105.84c0-95.257-158.762-95.257-201.102-95.257zm0 0"/><path d="M455.125 279.191h-105.84c-11.691 0-21.172 9.48-21.172 21.172v21.168c0 11.692 9.48 21.168 21.172 21.168h105.84c11.691 0 21.172-9.476 21.172-21.168v-21.168c0-11.691-9.48-21.172-21.172-21.172zm0 0" fill-opacity=".988"/></g></svg>
